public/assets/badges/fiveProjectsFunded.svg

<svg fill="none" height="191" viewBox="0 0 191 191" width="191" xmlns="http://www.w3.org/2000/svg" xmlns:xlink="http://www.w3.org/1999/xlink"><filter id="a" color-interpolation-filters="sRGB" filterUnits="userSpaceOnUse" height="142.337" width="156.674" x="16.5547" y="19"><feFlood flood-opacity="0" result="BackgroundImageFix"/><feColorMatrix in="SourceAlpha" type="matrix" values="0 0 0 0 0 0 0 0 0 0 0 0 0 0 0 0 0 0 127 0"/><feOffset dy="4"/><feColorMatrix type="matrix" values="0 0 0 0 0 0 0 0 0 0 0 0 0 0 0 0 0 0 0.15 0"/><feBlend in2="BackgroundImageFix" mode="normal" result="effect1_dropShadow"/><feBlend in="SourceGraphic" in2="effect1_dropShadow" mode="normal" result="shape"/></filter><filter id="b" color-interpolation-filters="sRGB" filterUnits="userSpaceOnUse" height="76.2255" width="84.6253" x="48.3877" y="64.5322"><feFlood flood-opacity="0" result="BackgroundImageFix"/><feColorMatrix in="SourceAlpha" type="matrix" values="0 0 0 0 0 0 0 0 0 0 0 0 0 0 0 0 0 0 127 0"/><feOffset dy="1"/><feColorMatrix type="matrix" values="0 0 0 0 0 0 0 0 0 0 0 0 0 0 0 0 0 0 0.15 0"/><feBlend in2="BackgroundImageFix" mode="normal" result="effect1_dropShadow"/><feBlend in="SourceGraphic" in2="effect1_dropShadow" mode="normal" result="shape"/></filter><filter id="c" color-interpolation-filters="sRGB" filterUnits="userSpaceOnUse" height="6.40644" width="4.57425" x="84.9946" y="74.6851"><feFlood flood-opacity="0" result="BackgroundImageFix"/><feColorMatrix in="SourceAlpha" type="matrix" values="0 0 0 0 0 0 0 0 0 0 0 0 0 0 0 0 0 0 127 0"/><feOffset dy=".25"/><feColorMatrix type="matrix" values="0 0 0 0 0 0 0 0 0 0 0 0 0 0 0 0 0 0 0.15 0"/><feBlend in2="BackgroundImageFix" mode="normal" result="effect1_dropShadow"/><feBlend in="SourceGraphic" in2="effect1_dropShadow" mode="normal" result="shape"/></filter><filter id="d" color-interpolation-filters="sRGB" filterUnits="userSpaceOnUse" height="6.40644" width="4.57425" x="98.7114" y="77.2632"><feFlood flood-opacity="0" result="BackgroundImageFix"/><feColorMatrix in="SourceAlpha" type="matrix" values="0 0 0 0 0 0 0 0 0 0 0 0 0 0 0 0 0 0 127 0"/><feOffset dy=".25"/><feColorMatrix type="matrix" values="0 0 0 0 0 0 0 0 0 0 0 0 0 0 0 0 0 0 0.15 0"/><feBlend in2="BackgroundImageFix" mode="normal" result="effect1_dropShadow"/><feBlend in="SourceGraphic" in2="effect1_dropShadow" mode="normal" result="shape"/></filter><filter id="e" color-interpolation-filters="sRGB" filterUnits="userSpaceOnUse" height="6.40644" width="4.57425" x="91.958" y="84.5913"><feFlood flood-opacity="0" result="BackgroundImageFix"/><feColorMatrix in="SourceAlpha" type="matrix" values="0 0 0 0 0 0 0 0 0 0 0 0 0 0 0 0 0 0 127 0"/><feOffset dy=".25"/><feColorMatrix type="matrix" values="0 0 0 0 0 0 0 0 0 0 0 0 0 0 0 0 0 0 0.15 0"/><feBlend in2="BackgroundImageFix" mode="normal" result="effect1_dropShadow"/><feBlend in="SourceGraphic" in2="effect1_dropShadow" mode="normal" result="shape"/></filter><clipPath id="f"><path d="m0 0h191v191h-191z"/></clipPath><g clip-path="url(#f)"><g filter="url(#a)"><path d="m86.2313 24c3.849-6.6667 13.4715-6.6667 17.3207 0l68.322 118.337c3.849 6.667-.962 15-8.66 15h-136.6445c-7.698 0-12.5093-8.333-8.6603-15z" fill="#e62336"/><path d="m100.954 25.5 68.322 118.337c2.694 4.667-.674 10.5-6.062 10.5h-136.6445c-5.3886 0-8.7565-5.833-6.0622-10.5l68.3221-118.337c2.6943-4.6667 9.43-4.6667 12.1246 0z" stroke="#eee" stroke-width="6"/></g><g filter="url(#b)"><path d="m125.71 103.936.288.506h.582 4.852c.318 0 .581.264.581.579v7.895c0 3.187-2.171 5.865-5.122 6.652l-.439.117-.2.407c-2.427 4.922-7.171 9.145-13.406 11.94l-.591.265v.648 5.234c0 .315-.263.579-.581.579h-6.323c-.318 0-.58-.264-.58-.579v-2.321-1.198l-1.179.214c-2.597.471-5.3192.726-8.1197.726-2.8004 0-5.5227-.255-8.12-.726l-1.1784-.214v1.198 2.321c0 .315-.2626.579-.5807.579h-6.3226c-.3181 0-.5807-.264-.5807-.579v-5.234-.648l-.5909-.265c-9.2788-4.16-15.2157-11.431-15.2157-19.511 0-6.242 3.5291-11.988 9.4213-16.2124 5.8904-4.223 14.0785-6.8667 23.1677-6.8667 8.2237 0 15.7117 2.1668 21.4197 5.7151l.702.4365.561-.6077c.952-1.0315 2.465-2.3466 4.347-2.9026-.694 1.358-1.602 3.2847-2.053 4.8725l-.173.611.479.4167c2.057 1.7886 3.728 3.7946 4.955 5.9526z" fill="#54bbab" stroke="#eee" stroke-width="2"/><path d="m62.3877 115.112c-2.8333-.167-8.1-1.6-6.5-6 .3333-.834 1.751-3.05 3.5-2 2.5 1.5 0 4-2 5s-4 1-8-2" stroke="#eee" stroke-linecap="round" stroke-width="2"/><path d="m116.809 106.811c1.091 0 1.976-.884 1.976-1.974s-.885-1.974-1.976-1.974-1.976.884-1.976 1.974.885 1.974 1.976 1.974z" fill="#eee"/><path d="m104.917 95.7054c-6.1966-3.071-14.0683-3-20.3198 0-1.3752.6632-.1739 2.7 1.1934 2.0448.1265-.0632.2529-.1185.3794-.1737-.2924.1263.2608-.1026.3477-.1342.2213-.0869.4426-.1658.6639-.2448 1.3436-.4658 2.7345-.821 4.1334-1.0658 4.1888-.7263 8.5672-.2842 12.4 1.6185 1.368.6789 2.569-1.3658 1.202-2.0448z" fill="#eee"/><path d="m81.2 84.3038c1.0999 1.4048 2.5327 2.3887 4.0973 2.9384.5125.1803 1.0809-.004 1.3894-.4561 1.9036-2.7738 4.0256-4.4351 4.0256-4.4351s2.7007-2.1145 5.9648-2.9454c.4528-.1139.7524-.539.7366-1.0079-.0535-1.8632-.6807-3.7284-1.9217-5.3135-3.1683-4.0467-9.0851-4.6682-13.0408-1.3105-3.6619 3.1176-4.2213 8.7493-1.2512 12.5301z" fill="#ffb400" stroke="#fcee21" stroke-miterlimit="10" stroke-width="2"/><g filter="url(#c)"><path d="m88.4473 76.9526c-1.0533 0-2.1144 0-3.1676 0-.3801 0-.3801.6307 0 .6307h3.1676c.3801 0 .388-.6307 0-.6307-1.0533 0-2.1144 0-3.1676 0-.3801 0-.3801.6307 0 .6307h3.1676c.3801 0 .388-.6307 0-.6307z" fill="#fcee21"/><path d="m88.4473 77.9431c-1.0533 0-2.1144 0-3.1676 0-.3801 0-.3801.6307 0 .6307h3.1676c.3801 0 .388-.6307 0-.6307-1.0533 0-2.1144 0-3.1676 0-.3801 0-.3801.6307 0 .6307h3.1676c.3801 0 .388-.6307 0-.6307z" fill="#fcee21"/><path d="m89.0688 80.2536c-.377.101-.772.1152-1.1552.0413-.3832-.0738-.7446-.2337-1.057-.4675-.3125-.2339-.5677-.5356-.7466-.8824-.1789-.3469-.2767-.7298-.286-1.12-.0094-.3901.07-.7773.232-1.1323.1621-.355.4026-.6686.7035-.9171.3008-.2486.6542-.4256 1.0334-.5177s.7744-.0969 1.1558-.0141" stroke="#fcee21" stroke-linecap="round"/></g><path d="m108.407 86.8545c-1.1 1.4049-2.532 2.3888-4.097 2.9385-.512.1802-1.081-.004-1.389-.4561-1.904-2.7738-4.0259-4.4352-4.0259-4.4352s-2.7007-2.1144-5.9647-2.9454c-.4529-.1139-.7525-.5389-.7367-1.0078.0535-1.8632.6807-3.7284 1.9217-5.3135 3.1683-4.0468 9.0856-4.6682 13.0406-1.3105 3.662 3.1176 4.221 8.7493 1.251 12.53z" fill="#ffb400" stroke="#fcee21" stroke-miterlimit="10" stroke-width="2"/><g filter="url(#d)"><path d="m102.164 79.5308c-1.053 0-2.114 0-3.1675 0-.3801 0-.3801.6307 0 .6307h3.1675c.38 0 .388-.6307 0-.6307-1.053 0-2.114 0-3.1675 0-.3801 0-.3801.6307 0 .6307h3.1675c.38 0 .388-.6307 0-.6307z" fill="#fcee21"/><path d="m102.164 80.5212c-1.053 0-2.114 0-3.1675 0-.3801 0-.3801.6307 0 .6307h3.1675c.38 0 .388-.6307 0-.6307-1.053 0-2.114 0-3.1675 0-.3801 0-.3801.6307 0 .6307h3.1675c.38 0 .388-.6307 0-.6307z" fill="#fcee21"/><path d="m102.786 82.8318c-.377.101-.772.1151-1.156.0412-.383-.0738-.744-.2337-1.057-.4675-.312-.2338-.567-.5356-.7462-.8824-.1789-.3469-.2767-.7298-.286-1.1199-.0094-.3902.07-.7773.232-1.1324.1621-.355.4022-.6686.7032-.9171.301-.2486.654-.4256 1.034-.5177.379-.0921.774-.0969 1.155-.0141" stroke="#fcee21" stroke-linecap="round"/></g><path d="m103.772 89.6421c0 1.7842-.521 3.4421-1.414 4.8395-.293.4579-.854.6631-1.376.4973-3.2084-1.0105-5.9034-1.0105-5.9034-1.0105s-3.43 0-6.5123 1.3579c-.4268.1895-.9247.0395-1.2013-.3395-1.1065-1.5-1.7625-3.3552-1.7625-5.3684 0-5.1395 4.2757-9.2763 9.4603-9.071 4.8052.1973 8.7172 4.2868 8.7092 9.0947z" fill="#ffb400" stroke="#fcee21" stroke-miterlimit="10" stroke-width="2"/><g filter="url(#e)"><path d="m95.4106 86.8589c-1.0532 0-2.1143 0-3.1675 0-.3801 0-.3801.6307 0 .6307h3.1675c.3801 0 .3881-.6307 0-.6307-1.0532 0-2.1143 0-3.1675 0-.3801 0-.3801.6307 0 .6307h3.1675c.3801 0 .3881-.6307 0-.6307z" fill="#fcee21"/><path d="m95.4106 87.8494c-1.0532 0-2.1143 0-3.1675 0-.3801 0-.3801.6307 0 .6307h3.1675c.3801 0 .3881-.6307 0-.6307-1.0532 0-2.1143 0-3.1675 0-.3801 0-.3801.6307 0 .6307h3.1675c.3801 0 .3881-.6307 0-.6307z" fill="#fcee21"/><path d="m96.0321 90.1599c-.3769.101-.7719.1151-1.1551.0413-.3832-.0739-.7446-.2337-1.0571-.4676-.3124-.2338-.5677-.5355-.7465-.8824-.1789-.3468-.2767-.7298-.286-1.1199-.0094-.3901.0699-.7773.232-1.1323.162-.355.4026-.6686.7034-.9172.3009-.2485.6543-.4255 1.0335-.5176.3792-.0922.7744-.097 1.1558-.0141" stroke="#fcee21" stroke-linecap="round"/></g></g></g></svg>

<svg width="191" height="191" viewBox="0 0 191 191" fill="none" xmlns="http://www.w3.org/2000/svg">
<g clip-path="url(#clip0)">
<g filter="url(#filter0_d)">
<path d="M86.2313 24C90.0803 17.3333 99.7028 17.3333 103.552 24L171.874 142.337C175.723 149.004 170.912 157.337 163.214 157.337H26.5695C18.8715 157.337 14.0602 149.004 17.9092 142.337L86.2313 24Z" fill="#E62336"/>
<path d="M100.954 25.5L169.276 143.837C171.97 148.504 168.602 154.337 163.214 154.337H26.5695C21.1809 154.337 17.813 148.504 20.5073 143.837L88.8294 25.5C91.5237 20.8333 98.2594 20.8333 100.954 25.5Z" stroke="#EEEEEE" stroke-width="6"/>
</g>
<g filter="url(#filter1_d)">
<path d="M125.71 103.936L125.998 104.442H126.58H131.432C131.75 104.442 132.013 104.706 132.013 105.021V112.916C132.013 116.103 129.842 118.781 126.891 119.568L126.452 119.685L126.252 120.092C123.825 125.014 119.081 129.237 112.846 132.032L112.255 132.297V132.945V138.179C112.255 138.494 111.992 138.758 111.674 138.758H105.351C105.033 138.758 104.771 138.494 104.771 138.179V135.858V134.66L103.592 134.874C100.995 135.345 98.2728 135.6 95.4723 135.6C92.6719 135.6 89.9496 135.345 87.3523 134.874L86.1739 134.66V135.858V138.179C86.1739 138.494 85.9113 138.758 85.5932 138.758H79.2706C78.9525 138.758 78.6899 138.494 78.6899 138.179V132.945V132.297L78.099 132.032C68.8202 127.872 62.8833 120.601 62.8833 112.521C62.8833 106.279 66.4124 100.533 72.3046 96.3086C78.195 92.0856 86.3831 89.4419 95.4723 89.4419C103.696 89.4419 111.184 91.6087 116.892 95.157L117.594 95.5935L118.155 94.9858C119.107 93.9543 120.62 92.6392 122.502 92.0832C121.808 93.4412 120.9 95.3679 120.449 96.9557L120.276 97.5667L120.755 97.9834C122.812 99.772 124.483 101.778 125.71 103.936Z" fill="#54BBAB" stroke="#EEEEEE" stroke-width="2"/>
<path d="M62.3877 115.112C59.5544 114.945 54.2877 113.512 55.8877 109.112C56.221 108.278 57.6387 106.062 59.3877 107.112C61.8877 108.612 59.3877 111.112 57.3877 112.112C55.3877 113.112 53.3877 113.112 49.3877 110.112" stroke="#EEEEEE" stroke-width="2" stroke-linecap="round"/>
<path d="M116.809 106.811C117.9 106.811 118.785 105.927 118.785 104.837C118.785 103.747 117.9 102.863 116.809 102.863C115.718 102.863 114.833 103.747 114.833 104.837C114.833 105.927 115.718 106.811 116.809 106.811Z" fill="#EEEEEE"/>
<path d="M104.917 95.7054C98.7204 92.6344 90.8487 92.7054 84.5972 95.7054C83.222 96.3686 84.4233 98.4054 85.7906 97.7502C85.9171 97.687 86.0435 97.6317 86.17 97.5765C85.8776 97.7028 86.4308 97.4739 86.5177 97.4423C86.739 97.3554 86.9603 97.2765 87.1816 97.1975C88.5252 96.7317 89.9161 96.3765 91.315 96.1317C95.5038 95.4054 99.8822 95.8475 103.715 97.7502C105.083 98.4291 106.284 96.3844 104.917 95.7054Z" fill="#EEEEEE"/>
<path d="M81.2 84.3038C82.2999 85.7086 83.7327 86.6925 85.2973 87.2422C85.8098 87.4225 86.3782 87.2382 86.6867 86.7861C88.5903 84.0123 90.7123 82.351 90.7123 82.351C90.7123 82.351 93.413 80.2365 96.6771 79.4056C97.1299 79.2917 97.4295 78.8666 97.4137 78.3977C97.3602 76.5345 96.733 74.6693 95.492 73.0842C92.3237 69.0375 86.4069 68.416 82.4512 71.7737C78.7893 74.8913 78.2299 80.523 81.2 84.3038Z" fill="#FFB400" stroke="#FCEE21" stroke-width="2" stroke-miterlimit="10"/>
<g filter="url(#filter2_d)">
<path d="M88.4473 76.9526C87.394 76.9526 86.3329 76.9526 85.2797 76.9526C84.8996 76.9526 84.8996 77.5833 85.2797 77.5833C86.3329 77.5833 87.394 77.5833 88.4473 77.5833C88.8274 77.5833 88.8353 76.9526 88.4473 76.9526C87.394 76.9526 86.3329 76.9526 85.2797 76.9526C84.8996 76.9526 84.8996 77.5833 85.2797 77.5833C86.3329 77.5833 87.394 77.5833 88.4473 77.5833C88.8274 77.5833 88.8353 76.9526 88.4473 76.9526Z" fill="#FCEE21"/>
<path d="M88.4473 77.9431C87.394 77.9431 86.3329 77.9431 85.2797 77.9431C84.8996 77.9431 84.8996 78.5738 85.2797 78.5738C86.3329 78.5738 87.394 78.5738 88.4473 78.5738C88.8274 78.5738 88.8353 77.9431 88.4473 77.9431C87.394 77.9431 86.3329 77.9431 85.2797 77.9431C84.8996 77.9431 84.8996 78.5738 85.2797 78.5738C86.3329 78.5738 87.394 78.5738 88.4473 78.5738C88.8274 78.5738 88.8353 77.9431 88.4473 77.9431Z" fill="#FCEE21"/>
<path d="M89.0688 80.2536C88.6918 80.3546 88.2968 80.3688 87.9136 80.2949C87.5304 80.2211 87.169 80.0612 86.8566 79.8274C86.5441 79.5935 86.2889 79.2918 86.11 78.945C85.9311 78.5981 85.8333 78.2152 85.824 77.825C85.8146 77.4349 85.894 77.0477 86.056 76.6927C86.2181 76.3377 86.4586 76.0241 86.7595 75.7756C87.0603 75.527 87.4137 75.35 87.7929 75.2579C88.1721 75.1658 88.5673 75.161 88.9487 75.2438" stroke="#FCEE21" stroke-linecap="round"/>
</g>
<path d="M108.407 86.8545C107.307 88.2594 105.875 89.2433 104.31 89.793C103.798 89.9732 103.229 89.789 102.921 89.3369C101.017 86.5631 98.8951 84.9017 98.8951 84.9017C98.8951 84.9017 96.1944 82.7873 92.9304 81.9563C92.4775 81.8424 92.1779 81.4174 92.1937 80.9485C92.2472 79.0853 92.8744 77.2201 94.1154 75.635C97.2837 71.5882 103.201 70.9668 107.156 74.3245C110.818 77.4421 111.377 83.0738 108.407 86.8545Z" fill="#FFB400" stroke="#FCEE21" stroke-width="2" stroke-miterlimit="10"/>
<g filter="url(#filter3_d)">
<path d="M102.164 79.5308C101.111 79.5308 100.05 79.5308 98.9965 79.5308C98.6164 79.5308 98.6164 80.1615 98.9965 80.1615C100.05 80.1615 101.111 80.1615 102.164 80.1615C102.544 80.1615 102.552 79.5308 102.164 79.5308C101.111 79.5308 100.05 79.5308 98.9965 79.5308C98.6164 79.5308 98.6164 80.1615 98.9965 80.1615C100.05 80.1615 101.111 80.1615 102.164 80.1615C102.544 80.1615 102.552 79.5308 102.164 79.5308Z" fill="#FCEE21"/>
<path d="M102.164 80.5212C101.111 80.5212 100.05 80.5212 98.9965 80.5212C98.6164 80.5212 98.6164 81.1519 98.9965 81.1519C100.05 81.1519 101.111 81.1519 102.164 81.1519C102.544 81.1519 102.552 80.5212 102.164 80.5212C101.111 80.5212 100.05 80.5212 98.9965 80.5212C98.6164 80.5212 98.6164 81.1519 98.9965 81.1519C100.05 81.1519 101.111 81.1519 102.164 81.1519C102.544 81.1519 102.552 80.5212 102.164 80.5212Z" fill="#FCEE21"/>
<path d="M102.786 82.8318C102.409 82.9328 102.014 82.9469 101.63 82.873C101.247 82.7992 100.886 82.6393 100.573 82.4055C100.261 82.1717 100.006 81.8699 99.8268 81.5231C99.6479 81.1762 99.5501 80.7933 99.5408 80.4032C99.5314 80.013 99.6108 79.6259 99.7728 79.2708C99.9349 78.9158 100.175 78.6022 100.476 78.3537C100.777 78.1051 101.13 77.9281 101.51 77.836C101.889 77.7439 102.284 77.7391 102.665 77.8219" stroke="#FCEE21" stroke-linecap="round"/>
</g>
<path d="M103.772 89.6421C103.772 91.4263 103.251 93.0842 102.358 94.4816C102.065 94.9395 101.504 95.1447 100.982 94.9789C97.7736 93.9684 95.0786 93.9684 95.0786 93.9684C95.0786 93.9684 91.6486 93.9684 88.5663 95.3263C88.1395 95.5158 87.6416 95.3658 87.365 94.9868C86.2585 93.4868 85.6025 91.6316 85.6025 89.6184C85.6025 84.4789 89.8782 80.3421 95.0628 80.5474C99.868 80.7447 103.78 84.8342 103.772 89.6421Z" fill="#FFB400" stroke="#FCEE21" stroke-width="2" stroke-miterlimit="10"/>
<g filter="url(#filter4_d)">
<path d="M95.4106 86.8589C94.3574 86.8589 93.2963 86.8589 92.2431 86.8589C91.863 86.8589 91.863 87.4896 92.2431 87.4896C93.2963 87.4896 94.3574 87.4896 95.4106 87.4896C95.7907 87.4896 95.7987 86.8589 95.4106 86.8589C94.3574 86.8589 93.2963 86.8589 92.2431 86.8589C91.863 86.8589 91.863 87.4896 92.2431 87.4896C93.2963 87.4896 94.3574 87.4896 95.4106 87.4896C95.7907 87.4896 95.7987 86.8589 95.4106 86.8589Z" fill="#FCEE21"/>
<path d="M95.4106 87.8494C94.3574 87.8494 93.2963 87.8494 92.2431 87.8494C91.863 87.8494 91.863 88.4801 92.2431 88.4801C93.2963 88.4801 94.3574 88.4801 95.4106 88.4801C95.7907 88.4801 95.7987 87.8494 95.4106 87.8494C94.3574 87.8494 93.2963 87.8494 92.2431 87.8494C91.863 87.8494 91.863 88.4801 92.2431 88.4801C93.2963 88.4801 94.3574 88.4801 95.4106 88.4801C95.7907 88.4801 95.7987 87.8494 95.4106 87.8494Z" fill="#FCEE21"/>
<path d="M96.0321 90.1599C95.6552 90.2609 95.2602 90.275 94.877 90.2012C94.4938 90.1273 94.1324 89.9675 93.8199 89.7336C93.5075 89.4998 93.2522 89.1981 93.0734 88.8512C92.8945 88.5044 92.7967 88.1214 92.7874 87.7313C92.778 87.3412 92.8573 86.954 93.0194 86.599C93.1814 86.244 93.422 85.9304 93.7228 85.6818C94.0237 85.4333 94.3771 85.2563 94.7563 85.1642C95.1355 85.072 95.5307 85.0672 95.9121 85.1501" stroke="#FCEE21" stroke-linecap="round"/>
</g>
</g>
</g>
<defs>
<filter id="filter0_d" x="16.5547" y="19" width="156.674" height="142.337" filterUnits="userSpaceOnUse" color-interpolation-filters="sRGB">
<feFlood flood-opacity="0" result="BackgroundImageFix"/>
<feColorMatrix in="SourceAlpha" type="matrix" values="0 0 0 0 0 0 0 0 0 0 0 0 0 0 0 0 0 0 127 0"/>
<feOffset dy="4"/>
<feColorMatrix type="matrix" values="0 0 0 0 0 0 0 0 0 0 0 0 0 0 0 0 0 0 0.15 0"/>
<feBlend mode="normal" in2="BackgroundImageFix" result="effect1_dropShadow"/>
<feBlend mode="normal" in="SourceGraphic" in2="effect1_dropShadow" result="shape"/>
</filter>
<filter id="filter1_d" x="48.3877" y="64.5322" width="84.6253" height="76.2255" filterUnits="userSpaceOnUse" color-interpolation-filters="sRGB">
<feFlood flood-opacity="0" result="BackgroundImageFix"/>
<feColorMatrix in="SourceAlpha" type="matrix" values="0 0 0 0 0 0 0 0 0 0 0 0 0 0 0 0 0 0 127 0"/>
<feOffset dy="1"/>
<feColorMatrix type="matrix" values="0 0 0 0 0 0 0 0 0 0 0 0 0 0 0 0 0 0 0.15 0"/>
<feBlend mode="normal" in2="BackgroundImageFix" result="effect1_dropShadow"/>
<feBlend mode="normal" in="SourceGraphic" in2="effect1_dropShadow" result="shape"/>
</filter>
<filter id="filter2_d" x="84.9946" y="74.6851" width="4.57425" height="6.40644" filterUnits="userSpaceOnUse" color-interpolation-filters="sRGB">
<feFlood flood-opacity="0" result="BackgroundImageFix"/>
<feColorMatrix in="SourceAlpha" type="matrix" values="0 0 0 0 0 0 0 0 0 0 0 0 0 0 0 0 0 0 127 0"/>
<feOffset dy="0.25"/>
<feColorMatrix type="matrix" values="0 0 0 0 0 0 0 0 0 0 0 0 0 0 0 0 0 0 0.15 0"/>
<feBlend mode="normal" in2="BackgroundImageFix" result="effect1_dropShadow"/>
<feBlend mode="normal" in="SourceGraphic" in2="effect1_dropShadow" result="shape"/>
</filter>
<filter id="filter3_d" x="98.7114" y="77.2632" width="4.57425" height="6.40644" filterUnits="userSpaceOnUse" color-interpolation-filters="sRGB">
<feFlood flood-opacity="0" result="BackgroundImageFix"/>
<feColorMatrix in="SourceAlpha" type="matrix" values="0 0 0 0 0 0 0 0 0 0 0 0 0 0 0 0 0 0 127 0"/>
<feOffset dy="0.25"/>
<feColorMatrix type="matrix" values="0 0 0 0 0 0 0 0 0 0 0 0 0 0 0 0 0 0 0.15 0"/>
<feBlend mode="normal" in2="BackgroundImageFix" result="effect1_dropShadow"/>
<feBlend mode="normal" in="SourceGraphic" in2="effect1_dropShadow" result="shape"/>
</filter>
<filter id="filter4_d" x="91.958" y="84.5913" width="4.57425" height="6.40644" filterUnits="userSpaceOnUse" color-interpolation-filters="sRGB">
<feFlood flood-opacity="0" result="BackgroundImageFix"/>
<feColorMatrix in="SourceAlpha" type="matrix" values="0 0 0 0 0 0 0 0 0 0 0 0 0 0 0 0 0 0 127 0"/>
<feOffset dy="0.25"/>
<feColorMatrix type="matrix" values="0 0 0 0 0 0 0 0 0 0 0 0 0 0 0 0 0 0 0.15 0"/>
<feBlend mode="normal" in2="BackgroundImageFix" result="effect1_dropShadow"/>
<feBlend mode="normal" in="SourceGraphic" in2="effect1_dropShadow" result="shape"/>
</filter>
<clipPath id="clip0">
<rect width="191" height="191" fill="white"/>
</clipPath>
</defs>
</svg>
